X:1
T: Mar Castle
C:Alexander Walker
R:Strathspey
Q: 128
K:E
M:4/4
L:1/16
|:"slightly adapted by Bruce Shawyer"c2|BE3 G3F E4 B,2E2|G3E B3G cF3 F3e|BE3 G3F E4 B,2G2|A3c B3d eE3 E3e|
BE3 G3F E4 B,2E2|G3E B3G cF3 F3d|e3g d3f c3e B3G|A3c B3a ge3 e2g2|
b3e agfd e4 B3G|A3B cBAG cf3 f3g|b3e agfd e4 B3G|((3A2B2c2) ((3B2c2d2) ee3 e3g|
b3e agfd e4 B3G|A3B cBAG cF3 F3G|E3G F3A G3B A3c|B3e f3a ge3 e2:|
